src/img/car.svg

<svg fill="none" height="24" viewBox="0 0 24 24" width="24" xmlns="http://www.w3.org/2000/svg"><path clip-rule="evenodd" d="m19.1587 8.88112h2.3341c.3045 0 .5278.28616.4542.58129l-.234.93569c-.0518.2082-.2389.3544-.4538.3544h-.7824c.5232.4573.8604 1.122.8604 1.8713v1.8714c0 .6288-.2401 1.1961-.6238 1.6347v2.1079c0 .6889-.5586 1.2476-1.2475 1.2476h-1.2476c-.6889 0-1.2476-.5587-1.2476-1.2476v-1.2475h-9.98047v1.2475c0 .6889-.55867 1.2476-1.24756 1.2476h-1.24756c-.68889 0-1.24757-.5587-1.24757-1.2476v-2.1079c-.38362-.439-.62378-1.0063-.62378-1.6347v-1.8714c0-.7493.33723-1.414.86082-1.8713h-.78246c-.21481 0-.40194-.1462-.4538-.3544l-.23391-.93569c-.07408-.29513.14931-.58129.4538-.58129h2.33372l.64873-1.62183c.66706-1.66745 2.25848-2.74464 4.05419-2.74464h4.95125c1.7961 0 3.3872 1.07719 4.0538 2.74464zm-9.65385-1.87134c-.7653 0-1.45341.46588-1.73762 1.17621l-.777 1.94271h9.98047l-.777-1.94271c-.2842-.71033-.9723-1.17621-1.7376-1.17621zm-3.76218 7.47762c-.74854 0-1.24756-.4975-1.24756-1.2437s.49902-1.2437 1.24756-1.2437 1.87135 1.1193 1.87135 1.8655c0 .6557-.8669.6392-1.58506.6256-.09915-.0019-.19548-.0037-.28629-.0037zm12.18933.0037c.0992-.0019.1955-.0037.2863-.0037.7485 0 1.2476-.4975 1.2476-1.2437s-.4991-1.2437-1.2476-1.2437-1.8713 1.1193-1.8713 1.8655c0 .6557.8669.6392 1.585.6256z" fill="#88898b" fill-rule="evenodd"/></svg>

<svg width="24" height="24" viewBox="0 0 24 24" fill="none" 
  xmlns="http://www.w3.org/2000/svg">
  <path fill-rule="evenodd" clip-rule="evenodd" d="M19.1587 8.88112H21.4928C21.7973 8.88112 22.0206 9.16728 21.947 9.46241L21.713 10.3981C21.6612 10.6063 21.4741 10.7525 21.2592 10.7525H20.4768C21 11.2098 21.3372 11.8745 21.3372 12.6238V14.4952C21.3372 15.124 21.0971 15.6913 20.7134 16.1299V18.2378C20.7134 18.9267 20.1548 19.4854 19.4659 19.4854H18.2183C17.5294 19.4854 16.9707 18.9267 16.9707 18.2378V16.9903H6.99023V18.2378C6.99023 18.9267 6.43156 19.4854 5.74267 19.4854H4.49511C3.80622 19.4854 3.24754 18.9267 3.24754 18.2378V16.1299C2.86392 15.6909 2.62376 15.1236 2.62376 14.4952V12.6238C2.62376 11.8745 2.96099 11.2098 3.48458 10.7525H2.70212C2.48731 10.7525 2.30018 10.6063 2.24832 10.3981L2.01441 9.46241C1.94033 9.16728 2.16372 8.88112 2.46821 8.88112H4.80193L5.45066 7.25929C6.11772 5.59184 7.70914 4.51465 9.50485 4.51465H14.4561C16.2522 4.51465 17.8433 5.59184 18.5099 7.25929L19.1587 8.88112ZM9.50485 7.00978C8.73955 7.00978 8.05144 7.47566 7.76723 8.18599L6.99023 10.1287H16.9707L16.1937 8.18599C15.9095 7.47566 15.2214 7.00978 14.4561 7.00978H9.50485ZM5.74267 14.4874C4.99413 14.4874 4.49511 13.9899 4.49511 13.2437C4.49511 12.4975 4.99413 12 5.74267 12C6.49121 12 7.61402 13.1193 7.61402 13.8655C7.61402 14.5212 6.74712 14.5047 6.02896 14.4911C5.92981 14.4892 5.83348 14.4874 5.74267 14.4874ZM17.932 14.4911C18.0312 14.4892 18.1275 14.4874 18.2183 14.4874C18.9668 14.4874 19.4659 13.9899 19.4659 13.2437C19.4659 12.4975 18.9668 12 18.2183 12C17.4698 12 16.347 13.1193 16.347 13.8655C16.347 14.5212 17.2139 14.5047 17.932 14.4911Z" fill="#88898B"/>
</svg>
